SVG-Icons/Technical/Grafana/grafana-logo-metrics-gem-orange.svg

<svg width="22" height="25" viewBox="0 0 22 25" fill="none" xmlns="http://www.w3.org/2000/svg">
<path d="M1.12244 6.71703L10.1632 10.7479C10.3276 10.8301 10.4098 10.8301 10.5741 10.8301C10.7385 10.8301 10.8207 10.8301 10.9851 10.7479L19.9436 6.71703C20.2724 6.63477 20.519 6.22345 20.519 5.89441C20.519 5.48309 20.2724 5.15404 19.9436 4.98952L10.9851 0.958669C10.7385 0.876407 10.4098 0.876407 10.1632 0.958669L1.12244 4.98952C0.793684 5.15404 0.547118 5.48309 0.547118 5.89441C0.547118 6.22345 0.793684 6.63477 1.12244 6.71703ZM21.0943 19.3854L16.9848 11.1592C16.8205 10.8301 16.4917 10.5833 16.0807 10.5833C15.6699 10.5833 15.3411 10.8301 15.1768 11.1592L10.6563 22.0178C10.6563 22.0178 10.6563 22.1001 10.5741 22.1001C10.4919 22.1001 10.4919 22.1001 10.4919 22.0178L6.30032 11.3237C6.13595 10.9947 5.80719 10.7479 5.47844 10.6656C5.06749 10.6656 4.73874 10.8301 4.57436 11.1592L0.136175 19.2208C-0.0282027 19.4676 -0.0282027 19.7144 0.053986 20.0435C0.136175 20.2902 0.300552 20.537 0.629307 20.6193L10.2454 24.8147C10.4098 24.897 10.4919 24.897 10.6563 24.897C10.8207 24.897 10.9029 24.897 11.0673 24.8147L20.6833 20.6193C20.9298 20.537 21.0943 20.2902 21.1765 20.0435C21.1765 19.879 21.1765 19.5499 21.0943 19.3854Z" fill="#FF671D"/>
</svg>

<svg xmlns="http://www.w3.org/2000/svg" fill="none" viewBox="0 0 22 25"><path fill="#FF671D" d="m1.122 6.717 9.041 4.03c.165.083.247.083.411.083.165 0 .247 0 .411-.082l8.959-4.031c.328-.082.575-.494.575-.823 0-.41-.247-.74-.575-.904L10.985.959a1.4 1.4 0 0 0-.822 0l-9.04 4.03a1.012 1.012 0 0 0-.576.905c0 .33.247.74.575.823Zm19.972 12.668-4.11-8.226a1.01 1.01 0 0 0-.903-.576c-.411 0-.74.247-.904.576l-4.52 10.859s0 .082-.083.082c-.082 0-.082 0-.082-.082L6.3 11.324a1.306 1.306 0 0 0-.822-.658c-.41 0-.74.164-.904.493L.136 19.221c-.164.247-.164.493-.082.823.082.246.247.493.575.575l9.616 4.196c.165.082.247.082.411.082.165 0 .247 0 .411-.082l9.616-4.196c.247-.082.411-.329.494-.575 0-.165 0-.494-.083-.659Z"/></svg>
